X: 67
T: Wals voor Polle
C: Wim Poesen
R: waltz
M: 3/4
L: 1/4
K: C
G |: "C"e3| "G"deg| "Em"G3- | GAB | "C"c>Bc | "F"ABc | "G"e3 | "G"d2 G|
"C"e3 | "G"deg | "Em"G3- | GAB | "C"c>de| "G"dcB |1 "C"c3-|c2 G:|2 "C"c3-|cde||
|: "Dm"f2e | d2 c| "G"B3- | B ef | "Em"g2 f| e2 d| "Am"c3- |cde |
"Dm"f2e| d2c | "G"B2A | GAB | "C"c>de | "G"dcB |1 "C"c3-|cde:|2 "C"c3-|c2|]

